X: 858
T: Johnny Allen's reel
C: anon.
O: Ireland
B: Francis O'Neill: "The Dance Music of Ireland" (1907) no. 774
R: Reel
Z: Transcribed by Frank Nordberg - http://www.musicaviva.com
F: http://www.musicaviva.com/abc/tunes/ireland/oneill-1001/oneill-1001-077
4.abc
M: C|
L: 1/8
K: D
(FG)|A=cBG AGFG|Addc d2(FG)|A=cBG AGFD|AGGF G2(FG)|A=cBG AGFA|d2(ef
) g2(fg)|(3(agf)ge dfec|dcAF G2||
(AB)|=cBAg fde^c|dcAB =c2(AB)|=cBAg fde^c|dcAF G2(AB)|=cBAg fde^c
|d2(ef) g2(fg)|(3(agf) ge dfec|dcAF G2|]
W:
W:
W: From Musica Viva - http://www.musicaviva.com
W: the Internet center for free sheet music downloads.


